X:439
T:Mad Robin
C:John Playford, 1686
S:Colin Hume's website,  colinhume.com  - chords can also be printed below the stave.
Q:1/2=120
M:2/2
L:1/4
K:Bb
P:A
|: z | "Bb"fd- "Eb"dg | "Bb"fB- Bc | "Gm"de/d/ "Cm"cB | "F7"c/B/A/G/ F2 |\
"Bb"fd-"Eb"dg | "Bb"fB- Bc | "Gm"d e/d/ "F7"c3/B/ | "Bb"B3 :|
P:B
|: f | "Gm"b3/a/ "Dm"gf | "Gm"gd-d=e | "Gm/D"dg "D7"g3/^f/ | "Gm"g2- "F/A"gf |\
"Bb"f_e- ed | "Gm"fd- dc/B/ | "Cm"AG "F7"c3/B/ | "Bb"B3 :|

